X:1
T:Beautiful City of Gold
T:Beautiful City of Gold
T:Mabeth Kilgore
T:Mabeth Kilgore, 1920
T:Public Domain Courtesy of the Cyber Hymnal™
T:Public Domain Courtesy of the Cyber Hymnal™
C:Mabeth Kilgore
Z:Public Domain
Z:Courtesy of the Cyber Hymnal™
%%score ( 1 2 ) ( 3 4 )
L:1/8
Q:1/4=88
M:6/8
K:F
V:1 treble 
V:2 treble 
V:3 bass 
V:4 bass 
V:1
"^Duet" CDE (FE)F | B3 A2 A | BBD E2 B | A3- A2 A | G^FG c2 G | A A4 A | AGF (E!fermata!A)G | %7
w: 1.~Beau- ti- ful city * of|go- ld, O|how my heart longs for|thee! * The|streets are as clear as|crys- tal, The|pearl- y gates we * shall|
w: 2.~Home of the bride * of|Je- sus, That|beau- ti- ful home so|fair, * His|bride, too, is fair and|spot- less, Her|gar- ments were wrought * with|
w: 3.~Some day we’ll meet~all * our|loved ones, When|Je- sus our Lord shall|come, * With|an- gels and clouds of|glo- ry, Far|bright- er than noon- * day’s|
w: 4.~Friend, if you ever * would|en- ter That|beau- ti- ful land of|light, * Be|washed in the blood of|Je- sus, And|thou shalt re- ceive * thy|
 F3- F2 z ||"^Refrain" [Fc][FA][Fd] [Fc][FA]F | B3 [EB]2 z | [B,D][CE][CF] [DF][^CE][DF] | %11
w: see. *||||
w: care. *||||
w: sun. *|Beau- ti- ful ci- ty of|gold (of|gold), Bought by the blood of|
w: sight. *||||
 [FA][EG][DF] E2 x2 | [Fc][FA][Fd] [Fc][FA][_EF] | [DF][DB][Ec] [Fd]2 [Fd] | %14
w: |||
w: |||
w: the Lamb, we are|told; All who would ev- er|that beau- ty be- hold,|
w: |||
 (cA)[Bc] !fermata![Af]!fermata![Ac]"^riten."[FA] | [EB][EA][EG] F3 |] %16
w: ||
w: ||
w: Must * come to Je- sus|and en- ter the|
w: ||
V:2
 x6 | x6 | x6 | x6 | x6 | x6 | x6 | x6 || x5 F | (EG)F x3 | x6 | x3 E3 c | x6 | x6 | F2 x4 | %15
 x3 F3 |] %16
V:3
 A,B,G, (A,G,)A, | (D3 C2) C | DDB, G,2 D | C3- C2 C | B,A,B, E2 E | D C2- C2 C | CB,A, (G,C)B, | %7
 [F,,F,A,]3- [F,,F,A,]2 z || [F,A,][F,C][F,B,] [F,A,][F,C][A,C] | C2 [D,C] [C,C]2 z | %10
 [C,B,][C,B,][C,A,] [G,,=B,][G,,^A,][G,,B,] | [G,=B,][G,B,][G,B,] [C,B,]3 x | %12
 [F,A,][F,C][F,B,] [F,A,][F,C][F,A,] | [B,,B,][B,,F,][B,,F,] [B,,B,]2 [=B,,^G,] | %14
 (A,C)[G,E] !fermata![F,F]!fermata![F,F][F,C] | [C,D][C,C][C,B,] [F,A,]3 |] %16
V:4
 F,,3 F,,3 | [F,,F,]6 | [C,E,]3 C,3 | [F,,F,]6 | C,3 C,3 | F,,3 F,,3 | [F,,F,]3 C,3 | x6 || x6 | %9
 (G,E,) x4 | x6 | x7 | x6 | x6 | C,2 x4 | x6 |] %16

